X:1499
T:Welcome Home
R:reel
N:"collected from Cronin"
B:"O'Neill's Dance Music of Ireland, 1499"
T: failte ro.mad a .baile.
Z:transcribed by John B. Walsh, walsh@math.ubc.ca 8/22/96
M:C|
L:1/8
K:D
(AG)|FEFG AFD(c|BA)GB AGFD|FEFG A3(g|fd)ec dcAG|
FEFG AFDc|BAGB AGFD|FEFG A3(g|fd)ec d2||
(de)|fedf edce|dcAB cAGg|fedf edcA|Adce d2 (de)|
fedf edce|dcAB cAGE|FEFG A3(g|fd)ec d2||


